22x22/apps/documentation.svg

<svg xmlns="http://www.w3.org/2000/svg" width="22" height="22" version="1">
 <path fill="#3e50b4" d="m19 20v-18c0-0.554-0.446-1-1-1h-14c-0.554 0-1 0.446-1 1v18c0 0.554 0.446 1 1 1h14c0.554 0 1-0.446 1-1z"/>
 <path opacity=".2" d="m5.4615 3.5c-0.4615 0-0.4615 0.4706-0.4615 0.4706v15.058s0 0.47059 0.46154 0.47059h11.106s0.43292 0 0.43292-0.47059l-0.001-9.4114-5.646-6.1176zm7.7925 0 3.746 4.0588v-3.5882c0-0.4706-0.462-0.4706-0.462-0.4706z"/>
 <path fill="#fff" opacity=".1" d="m4 1c-0.554 0-1 0.446-1 1v0.5c0-0.554 0.446-1 1-1h14c0.554 0 1 0.446 1 1v-0.5c0-0.554-0.446-1-1-1z"/>
 <path fill="#f5f5f5" d="m5.4615 3c-0.4615 0-0.4615 0.4706-0.4615 0.4706v15.058s0 0.471 0.4615 0.471h11.106c-0.001 0 0.432 0 0.432-0.471v-9.4114l-5.646-6.1176zm7.7925 0 3.746 4.0588v-3.5882c0-0.4706-0.462-0.4706-0.462-0.4706z"/>
 <path opacity=".5" d="m7 17v-1h5v1zm0-2v-1h8v1zm0-2v-1h8v1zm0-2v-1h8v1z"/>
 <path opacity=".2" d="m3 20v0.5c0 0.554 0.446 1 1 1h14c0.554 0 1-0.446 1-1v-0.5c0 0.554-0.446 1-1 1h-14c-0.554 0-1-0.446-1-1z"/>
</svg>

<svg xmlns="http://www.w3.org/2000/svg" width="22" height="22" version="1"><path fill="#3e50b4" d="M19 20V2c0-.554-.446-1-1-1H4c-.554 0-1 .446-1 1v18c0 .554.446 1 1 1h14c.554 0 1-.446 1-1z"/><path opacity=".2" d="M5.462 3.5C5 3.5 5 3.97 5 3.97V19.03s0 .47.462.47h11.106s.432 0 .432-.47V9.617L11.352 3.5zm7.792 0L17 7.559V3.97c0-.471-.462-.471-.462-.471z"/><path fill="#fff" opacity=".1" d="M4 1c-.554 0-1 .446-1 1v.5c0-.554.446-1 1-1h14c.554 0 1 .446 1 1V2c0-.554-.446-1-1-1z"/><path fill="#f5f5f5" d="M5.462 3C5 3 5 3.47 5 3.47V18.53s0 .47.462.47h11.105S17 19 17 18.53V9.117L11.353 3zm7.792 0L17 7.059V3.47C17 3 16.538 3 16.538 3z"/><path opacity=".5" d="M7 17v-1h5v1zm0-2v-1h8v1zm0-2v-1h8v1zm0-2v-1h8v1z"/><path opacity=".2" d="M3 20v.5c0 .554.446 1 1 1h14c.554 0 1-.446 1-1V20c0 .554-.446 1-1 1H4c-.554 0-1-.446-1-1z"/></svg>
